X: 8
T:Balancy Straw, Brackley
M:4/4
L:1/8
A:Brackley
P:A(AB)6A
K:G
P:A
|:GA|B2B2 B>cd>B|c2A2 A2Bc|d2d2 c2BA|G2G2 G2 :|
P:B
gf|e2d2 d2GA  |B2B2 B2gf|e2d2 c2B2|AGFE D2GA|
B2B2 B>cd>B|c2A2 A2Bc|d2d2 c2BA|G2G2 G2 ||
